!!!COM:	Praetorius, Michael
!!!OTL:	Christus der uns selig macht
**kern	**kern	**kern	**kern
*ICvox	*ICvox	*ICvox	*ICvox
*I"Bassus	*I"Tenor	*I"Altus	*I"Diskantus
*clefF4	*clefGv2	*clefG2	*clefG2
*k[]	*k[]	*k[]	*k[]
*M2/2	*M2/2	*M2/2	*M2/2
!!Meter Interpreted, Nat Condit-Schultz, 2018, Rule 2
*met(c)	*met(c)	*met(c)	*met(c)
2E	2B	2g#	2ee
2AA	2c	2a	2ee
2E	2B	2g#	2ee
2G	2B	2d	2dd
2D	2A	2f	2dd
2A	2A	2e	2cc
1E	1G#	1e	1b
=	=	=	=
2F	2A	2c	2a
2E	2B	2e	2g
2Dn	2d	2f	2a
2GGn	2d	2gn	2b
4GG	1B	1g	1.dd
4AA	.	.	.
4BB	.	.	.
4C	.	.	.
2D	1A	2f	.
2AA	.	2e	2cc
1E	1G#	1e	1b
=	=	=	=
2Fn	2A	2c	2a
2D	2F	2d	2b
2C	2Gn	2e	2cc
2D	2F	2d	2a
2AA	2E	2c	2a
2D	2F	2A	2f
1C	1G	1c	1e
=	=	=	=
2GG	2G	2B	2d
2AA	2E	2A	2c#
2D	2F	2A	2d
2C	2G	2c	2e
2.GG	1.B	0d	1.g
4AA	.	.	.
4BB	.	.	.
4C	.	.	.
2D	2A	.	2f
1AA	1A	1c#	1e
=	=	=	=
2FF	2c	2f	2a
2FF	2A	2cn	2a
2FF	2c	2f	2a
2GG	2B	2d	2g
2AA	2A	2d	2f
2AA	2A	2c#	2e
1D	1F#	1d	1d
=	=	=	=
2C	2G	2e	2g
2BB	2G	2d	2g
2AA	2c	2e	2a
2E	2G	2e	2b
2.BB	1B	2f#	1.dd
.	.	2g	.
4C	.	.	.
2D	1A	2f#	.
2AA	.	2e	2cc
1E	1G	1e	1b
=	=	=	=
2F	2A	2c	2a
2D	2F	2d	2b
2C	2G	2e	2cc
2D	2F	2d	2a
2AA	2E	2c	2a
2D	2F	2A	2f
1C	1G	1c	1e
=	=	=	=
2GG	2G	2B	2d
2AA	2E	2A	2c
2D	2F	2A	2d
2C	2G	2c	2e
2.GG	1.B	0d	1.g
4AA	.	.	.
4BB	.	.	.
4C	.	.	.
2D	2A	.	2f
00AA	00A	00c#	00e
==	==	==	==
*-	*-	*-	*-
